X:2845
T:Innocent Hare
O:england
M:3/4
L:1/8
Q:120
K:D
A | d2 d e2 e | f2 f g2 g | a2 adef | e2 e d2 :|
f | gbg e2 d | c2 B A2  f | gbg e2 d | c2 B A2 |
| A | d2 d e2 e | f2 f g2 g | a2 adef | e2 e d2 |


